X: 1
T: Her Golden Hair Hung Down In Ringlets
M: 4/4
L: 1/8
R: hornpipe
S: Connie O'Connell - Ceol Cill Na Martra
K: Dmaj
(3ABc|dfed BAFA|dfed B2de|fAdf edBd|e2df eBBA|
~d3A BAFA|dfed B2de|faaf edBA|d2dc d2:|
|:dB|ABde ~f3e|dedB ADFA|G3A Bcdf|e2df eBBA|
~d3A BAFA|dfed B2de|faaf edBA|d2dc d2:|
